X:294
T:De vliegensvlugge vlieg
Z:Jack Campin, http://www.campin.me.uk/
F:Jack Campin's Nine-Note Tunebook
% last edit 03-02-2013
S:http://archive.folx.org/tune/de-vliegensvlugge-vlieg-2165
M:4/4
L:1/8
Q:1/2=132
K:D
F2A2 A2B2|F2AA- A4  |F2A2 A2B2|F2EE- E4 |
FAAA A2B2|F2AA- A4  |d3B  A2DD|FFEE  D4||
d4   B4  |A4-   AABA|d2d2 BB3 |A8       |
FAAA A2B2|F2AA- A4  |d3B  A2DD|FFEE  D4||

